src/assets/mobile/logo.svg

<svg width="234" height="66" viewBox="0 0 234 66" fill="none" xmlns="http://www.w3.org/2000/svg">
<path d="M40.5756 14.4V43.52L36.0956 48H56.2556L51.7756 43.52V7.68L56.2556 3.2H40.5756L29.3756 36.8V34.56L18.1756 3.2H0.255625L4.73563 7.68V43.52L0.255625 48H15.9356L11.4556 43.52L9.21563 12.16L22.6556 50.24L29.3756 48L40.5756 14.4ZM87.6156 48H85.3756L80.8956 41.28L76.4156 45.76L69.6956 48L62.9756 45.76L58.4956 39.04V23.36L54.0156 18.88L69.6956 14.4V39.04L71.9356 41.28H74.1756L78.6556 39.04V23.36L74.1756 18.88L89.8556 14.4V39.04H92.0956L96.5756 36.8V41.28L87.6156 48ZM112.243 16.64H121.203V21.12L112.243 23.36V39.04L116.723 41.28L121.203 36.8L123.443 39.04L118.963 45.76L112.243 48H107.763L101.043 41.28V23.36L96.5625 21.12V18.88L103.283 16.64L107.763 12.16L110.003 7.68H112.243V16.64ZM127.949 9.92V7.68L132.429 0.959998H134.669L141.389 5.44V7.68L136.909 14.4H134.669L127.949 9.92ZM141.389 14.4V43.52L145.869 48H125.709L130.189 43.52V23.36L125.709 18.88L141.389 14.4ZM154.853 43.52V23.36L150.373 18.88L166.053 14.4L161.573 23.36H163.813L168.293 16.64L172.773 14.4L181.733 16.64L186.213 21.12V43.52L190.693 48H172.773L175.013 43.52V25.6L172.773 23.36H170.533L166.053 25.6V43.52L168.293 48H150.373L154.853 43.52ZM195.162 21.12L190.682 16.64H213.082L208.602 23.36L215.322 39.04L219.802 21.12L215.322 16.64H233.242L228.762 21.12L213.082 50.24L204.122 65.92H195.162L192.922 63.68L208.602 48L195.162 21.12Z" fill="#3C365A"/>
</svg>

<svg width="234" height="66" fill="none" xmlns="http://www.w3.org/2000/svg"><path d="M40.576 14.4v29.12L36.096 48h20.16l-4.48-4.48V7.68l4.48-4.48h-15.68l-11.2 33.6v-2.24L18.176 3.2H.256l4.48 4.48v35.84L.256 48h15.68l-4.48-4.48-2.24-31.36 13.44 38.08 6.72-2.24 11.2-33.6ZM87.616 48h-2.24l-4.48-6.72-4.48 4.48-6.72 2.24-6.72-2.24-4.48-6.72V23.36l-4.48-4.48 15.68-4.48v24.64l2.24 2.24h2.24l4.48-2.24V23.36l-4.48-4.48 15.68-4.48v24.64h2.24l4.48-2.24v4.48L87.616 48Zm24.627-31.36h8.96v4.48l-8.96 2.24v15.68l4.48 2.24 4.48-4.48 2.24 2.24-4.48 6.72-6.72 2.24h-4.48l-6.72-6.72V23.36l-4.48-2.24v-2.24l6.72-2.24 4.48-4.48 2.24-4.48h2.24v8.96Zm15.706-6.72V7.68l4.48-6.72h2.24l6.72 4.48v2.24l-4.48 6.72h-2.24l-6.72-4.48Zm13.44 4.48v29.12l4.48 4.48h-20.16l4.48-4.48V23.36l-4.48-4.48 15.68-4.48Zm13.464 29.12V23.36l-4.48-4.48 15.68-4.48-4.48 8.96h2.24l4.48-6.72 4.48-2.24 8.96 2.24 4.48 4.48v22.4l4.48 4.48h-17.92l2.24-4.48V25.6l-2.24-2.24h-2.24l-4.48 2.24v17.92l2.24 4.48h-17.92l4.48-4.48Zm40.309-22.4-4.48-4.48h22.4l-4.48 6.72 6.72 15.68 4.48-17.92-4.48-4.48h17.92l-4.48 4.48-15.68 29.12-8.96 15.68h-8.96l-2.24-2.24L208.602 48l-13.44-26.88Z" fill="#3C365A"/></svg>
